X:2
T:Chicago
C:Fred Fisher
L:1/8
M:C
I:linebreak $
K:Ab
a2 S||"Ab" g4"Bbm" f2 a2 |"Cm" g4"Fm" f2 c2 |"Bbm" dcBe"Eb7" z2 z B |
"Bbm" dcBe"Eb7" z2 d2 Ox///||$"Dø" c4 B2 d2 |"Dbo" c4 B2 G2 |"Fm" AGFF"Bo" z4 |
"Bbm" z4"A7" z4 |"Ab6" ABcd"Bbm" ef-fe |"Cm" g2 ef-"F7" fe f2 |$"Bb7" c4 B2 f2 | c4 B2 c2 |
"Bbm" (3d2 e2 d2"Eb7" c2 B2 |"Bbm" (3d2 e2 d2"Dbo" c2 B2 |"Cm" e4"B7" z4 |
"Bbm" z4"A7" z2"_D.S. al Coda" a2 ||$Ox/"Gø" c4 B2 d2 |"Gb7" c2 c2 B2 B2 |"Fm" A4"E7" z4 |
"Ebm" z4"D7" z4 |"Db" cB-Bc"Db6" B2 cB- |"Dbm6" BcBB-"Gb7" B4 |$"Ab6" fe-ef"Bbm" e2 fe- |
"Cm" efee-"Bo" e2 aa |"Bbm" g4 f2 a2 |"Eb7" g2 g2 f2 g2 |"Ab6" a8 |]


